X:1
T:Title
%%score { ( 1 3 ) | 2 }
L:1/8
Q:1/4=100
M:6/8
K:Ab
V:1 treble nm="Grand Piano"
V:3 treble 
V:2 bass 
V:1
 [Ec]2 [Ec] [Ec]2 [DG] | [CB]3 [CA]3 | [CA]2 [CA] [CG]2 [CF] | G6 | F2 G d2 G | F3 G3 | %6
w: W.~A.~Post * * *||||||
 [CF]2 [CG] [Ec]2 [CF] | [CE]6 | [Ec]2 [Ec] [Ec]2 [DG] | [CB]3 [CEA]3 | [=EG]2 [EG] [EA]2 [EG] | %11
w: |||||
 G3 .F3 | F2 [FA] [Fd]2 [DF] | [CE]2 [CA] [Ec]2 [A,E] | [A,=DF]3 .[B,_DG]3 | [CA]6 | %16
w: |||||
 [CE][CE][CE] [CE][CF][CG] | [CB]3 [CA]3 | [Ec]3 .[EA]3 | A3 .G3 | EEE EGB | d3 e3 | B3 _c3 | %23
w: |||||||
 [Ec]6[K:bass] | c2 _c =c2 [Ee] | [EB]3 [DGB]3 | [CFA]2 [CFG] [CFA]2 [CFc] | [C=EG]3 .[B,EG]3 | %28
w: |||||
 [A,F][A,FG][A,FA] [FB][Fc][Fd] | [Ee]2 [Ee] A2 B | c3 B3 | [CA]6 |] %32
w: ||||
V:2
 [A,,A,]2 [A,,A,] [A,,A,]2 [A,,A,] | [A,,E,]3 [A,,E,]3 | [A,,E,]2 [A,,E,] [A,,E,]2 [A,,A,] | %3
 [E,B,D]6 | [E,G,D]2 [E,B,D] [E,G,D]2 [E,B,D] | [E,G,D]3 [E,B,D]3 | %6
 [A,,A,]2 [A,,A,] [A,,A,]2 [A,,A,] | [A,,A,]6 | [A,,A,]2 [A,,A,] [A,,A,]2 [A,,A,] | [A,,E,]3 A,,3 | %10
 [C,C]2 [C,C] [C,C]2 [C,B,] | [F,B,C]3 .[F,A,C]3 | [D,A,D]2 [D,A,] [D,A,]2 [D,A,] | %13
 [A,,A,]2 [A,,A,] [A,,A,]2 C, | B,,3 E,2 E, | [A,,E,]6 | %16
 [A,,A,][A,,A,][A,,A,] [A,,A,][A,,A,][A,,A,] | [A,,E,]3 [A,,E,]3 | [A,,A,]3 .[C,A,]3 | %19
 [E,B,D]3 .[E,B,D]3 | [E,G,D][E,G,D][E,G,D] [E,G,D][E,B,D][E,G,D] | [E,B,E]3 [E,G,E]3 | %22
 [E,G,E]3 [E,G,E]3 | [A,,A,]6 | [A,E]2 [A,=D] [A,E]2 [C,A,] | [E,G,]3 E,3 | F,2 F, F,2 A,, | %27
 C,3 .C,3 | D,D,D, [D,A,][D,A,][D,A,] | [C,A,]2 [C,A,] [F,A,C]2 [=E,A,=D] | [E,A,E]3 [E,G,D]3 | %31
 [A,,A,]6 |] %32
V:3
 x6 | x6 | x6 | x6 | x6 | x6 | x6 | x6 | x6 | x6 | x6 | x6 | x6 | x6 | x6 | x6 | x6 | x6 | x6 | %19
 x6 | x6 | x6 | x6 | z[K:bass] C,D, E,F,G, | x6 | x6 | x6 | x6 | x6 | x6 | x6 | x6 |] %32

